storage/app/icons/phosphoricons/thin/backpack-thin.svg

<svg xmlns="http://www.w3.org/2000/svg" fill="currentColor" viewBox="0 0 256 256"><path d="M164 44.17V32a20 20 0 0 0-20-20h-32a20 20 0 0 0-20 20v12.17A52.05 52.05 0 0 0 44 96v120a12 12 0 0 0 12 12h144a12 12 0 0 0 12-12V96a52.05 52.05 0 0 0-48-51.83M112 20h32a12 12 0 0 1 12 12v12h-56V32a12 12 0 0 1 12-12m60 144H84v-12a12 12 0 0 1 12-12h64a12 12 0 0 1 12 12Zm-88 8h56v12a4 4 0 0 0 8 0v-12h24v48H84Zm120 44a4 4 0 0 1-4 4h-20v-68a20 20 0 0 0-20-20H96a20 20 0 0 0-20 20v68H56a4 4 0 0 1-4-4V96a44.05 44.05 0 0 1 44-44h64a44.05 44.05 0 0 1 44 44ZM148 88a4 4 0 0 1-4 4h-32a4 4 0 0 1 0-8h32a4 4 0 0 1 4 4"/></svg>

<svg xmlns="http://www.w3.org/2000/svg" viewBox="0 0 256 256" fill="currentColor"><path d="M164,44.17V32a20,20,0,0,0-20-20H112A20,20,0,0,0,92,32V44.17A52.05,52.05,0,0,0,44,96V216a12,12,0,0,0,12,12H200a12,12,0,0,0,12-12V96A52.05,52.05,0,0,0,164,44.17ZM112,20h32a12,12,0,0,1,12,12V44H100V32A12,12,0,0,1,112,20Zm60,144H84V152a12,12,0,0,1,12-12h64a12,12,0,0,1,12,12Zm-88,8h56v12a4,4,0,0,0,8,0V172h24v48H84Zm120,44a4,4,0,0,1-4,4H180V152a20,20,0,0,0-20-20H96a20,20,0,0,0-20,20v68H56a4,4,0,0,1-4-4V96A44.05,44.05,0,0,1,96,52h64a44.05,44.05,0,0,1,44,44ZM148,88a4,4,0,0,1-4,4H112a4,4,0,0,1,0-8h32A4,4,0,0,1,148,88Z"/></svg>
